X:1
T:Title
%%score { 1 | 2 }
L:1/8
Q:1/4=120
M:3/4
K:Eb
V:1 treble nm="Church Organ"
V:2 bass 
V:1
 z2 z2 [G,B,E]2 | [CEG]4 [CFA]2 | [DFB]4 [EGB]2 | [EAc]2 [EGB]2 [CFA]2 | [DFB]4 [EGB]2 | %5
 [EGc]4 [FBd]2 | [GBe]4 [DGB]2 | [CEG]4 [CFA]2 | [DFB]4 [B,EG]2 | [EGB]4 [CFA]2 | [B,DF]4 [B,EG]2 | %11
 [CEA]2 [B,EG]2 [B,DF]2 | [B,EG]4 [DFB]2 | [B,CE]4 [B,DF]2 | [EG]2 [B,E]2 [CEA]2 | %15
 [B,EG]4 [B,DF]2 | [G,E]4 z2 |] %17
V:2
 z2 z2 E,2 | C,4 F,2 | B,,4 E,2 | A,,2 E,2 F,2 | B,,4 E,2 | C,4 B,,2 | E,4 G,2 | C,4 F,2 | %8
 C,4 E,2 | E,4 F,2 | B,,4 E,2 | A,,2 E,2 B,,2 | E,4 B,,2 | C,4 B,,2 | B,2 G,2 A,,2 | E,4 B,,2 | %16
 E,4 z2 |] %17

